dist/images/ico/ico_plus_01.svg

<svg width="29" height="29" viewBox="0 0 29 29" fill="none" xmlns="http://www.w3.org/2000/svg">
<path d="M14.6667 6.5C10.2507 6.5 6.66669 10.084 6.66669 14.5C6.66669 18.916 10.2507 22.5 14.6667 22.5C19.0827 22.5 22.6667 18.916 22.6667 14.5C22.6667 10.084 19.0827 6.5 14.6667 6.5ZM17.8667 15.3H15.4667V17.7C15.4667 18.14 15.1067 18.5 14.6667 18.5C14.2267 18.5 13.8667 18.14 13.8667 17.7V15.3H11.4667C11.0267 15.3 10.6667 14.94 10.6667 14.5C10.6667 14.06 11.0267 13.7 11.4667 13.7H13.8667V11.3C13.8667 10.86 14.2267 10.5 14.6667 10.5C15.1067 10.5 15.4667 10.86 15.4667 11.3V13.7H17.8667C18.3067 13.7 18.6667 14.06 18.6667 14.5C18.6667 14.94 18.3067 15.3 17.8667 15.3Z" fill="#253981"/>
</svg>

<svg width="29" height="29" fill="none" xmlns="http://www.w3.org/2000/svg"><path d="M14.667 6.5c-4.416 0-8 3.584-8 8s3.584 8 8 8 8-3.584 8-8-3.584-8-8-8zm3.2 8.8h-2.4v2.4c0 .44-.36.8-.8.8-.44 0-.8-.36-.8-.8v-2.4h-2.4c-.44 0-.8-.36-.8-.8 0-.44.36-.8.8-.8h2.4v-2.4c0-.44.36-.8.8-.8.44 0 .8.36.8.8v2.4h2.4c.44 0 .8.36.8.8 0 .44-.36.8-.8.8z" fill="#253981"/></svg>
